icon-svg/spotpear-ball-v1.svg

<svg xmlns="http://www.w3.org/2000/svg" viewBox="0 0 24 24"><path fill="#44739e" d="M12.849 9.68c.282 0 .31-.454.31-.649s-.028-.651-.31-.651-.311.455-.31.651.028.649.31.649m.8.495a.177.177 0 0 0-.2.139 1.492 1.492 0 0 1-2.941-.023.175.175 0 0 0-.345.057 1.844 1.844 0 0 0 3.632.029.18.18 0 0 0-.146-.202m-2.567-.495c.282 0 .311-.454.311-.649s-.029-.651-.311-.651-.311.455-.311.651.027.649.311.649m.905-5.218a6.05 6.05 0 0 0-6.32 5.739 6.05 6.05 0 0 0 6.32 5.74 6.05 6.05 0 0 0 6.318-5.74 6.05 6.05 0 0 0-6.318-5.739M11.98 12.7a2.809 2.809 0 1 1 2.809-2.808A2.813 2.813 0 0 1 11.98 12.7m.029-10.096h-.022a9.986 9.986 0 0 0-9.985 9.985 9.88 9.88 0 0 0 3.764 7.942 19.9 19.9 0 0 0 5.713.865h.53a22.4 22.4 0 0 0 6.251-1.018 9.984 9.984 0 0 0-6.251-17.774m-3.16 16.711a.22.22 0 0 1 .222-.222h.536a.222.222 0 0 1 0 .444h-.536a.223.223 0 0 1-.222-.222m3.413.222h-.536a.222.222 0 1 1 0-.444h.536a.222.222 0 0 1 0 .444m2.64 0h-.536a.222.222 0 1 1 0-.444h.536a.222.222 0 1 1 0 .444m-2.915-2.289c-4.286 0-7.759-3.154-7.759-7.046s3.473-7.047 7.759-7.047 7.758 3.155 7.758 7.046-3.474 7.047-7.758 7.047"/></svg>

<?xml version="1.0" encoding="UTF-8"?>
<svg width="24px" fill="#44739e" height="24px" viewBox="0 0 24 24" version="1.1" xmlns="http://www.w3.org/2000/svg" xmlns:xlink="http://www.w3.org/1999/xlink">
            <path d="m 12.852,9.679 c 0.282,0 0.31,-0.455 0.31,-0.65 0,-0.195 -0.028,-0.651 -0.31,-0.651 -0.282,0 -0.312,0.455 -0.311,0.651 10e-4,0.196 0.028,0.65 0.311,0.65 z m 0.8,0.495 a 0.177,0.177 0 0 0 -0.2,0.139 1.493,1.493 0 0 1 -2.942,-0.023 0.175,0.175 0 0 0 -0.345,0.057 1.845,1.845 0 0 0 3.633,0.029 v 0 A 0.18,0.18 0 0 0 13.652,10.174 Z M 11.084,9.679 c 0.282,0 0.311,-0.455 0.311,-0.65 0,-0.195 -0.029,-0.651 -0.311,-0.651 -0.282,0 -0.311,0.455 -0.311,0.651 0,0.196 0.027,0.65 0.311,0.65 z m 0.905,-5.22 A 6.052,6.052 0 0 0 5.667,10.2 6.053,6.053 0 0 0 11.989,15.942 6.053,6.053 0 0 0 18.31,10.2 6.052,6.052 0 0 0 11.989,4.459 Z M 11.982,12.7 a 2.81,2.81 0 1 1 2.81,-2.809 2.814,2.814 0 0 1 -2.81,2.809 z M 12.011,2.6 H 11.989 A 9.989,9.989 0 0 0 2,12.589 a 9.879,9.879 0 0 0 3.766,7.945 19.9,19.9 0 0 0 5.715,0.865 c 0.176,0 0.353,0 0.53,0 A 22.387,22.387 0 0 0 18.265,20.381 9.988,9.988 0 0 0 12.011,2.6 Z M 8.85,19.317 a 0.222,0.222 0 0 1 0.222,-0.222 h 0.536 a 0.222,0.222 0 0 1 0,0.444 H 9.072 A 0.223,0.223 0 0 1 8.85,19.317 Z m 3.414,0.222 h -0.536 a 0.222,0.222 0 1 1 0,-0.444 h 0.536 a 0.222,0.222 0 0 1 0,0.444 z m 2.641,0 h -0.536 a 0.222,0.222 0 1 1 0,-0.444 h 0.536 a 0.222,0.222 0 1 1 0,0.444 z M 11.989,17.25 c -4.287,0 -7.762,-3.156 -7.762,-7.049 0,-3.893 3.475,-7.05 7.762,-7.05 4.287,0 7.761,3.156 7.761,7.049 0,3.893 -3.475,7.05 -7.761,7.05 z"/>

</svg>
